X:45
T:The Humours of Hillsborough
M:6/8
L:1/8
R:jig
K:G
EDE G2A | BGE BGE | EDE F2G | AFD AFD |
ded c2B | ABG FED | EFG AcB | AGF G3 ::
G2 (3A/B/c/ d2 e | dBG AFD | G2 (3A/B/c/ d2e | dBc d3 |
ded c2B | ABG FED | EFG AcB | AGF G3 :|
